48x48/apps/ibus-setup-hangul.svg

<svg xmlns="http://www.w3.org/2000/svg" width="48" height="48" version="1.1">
 <circle style="opacity:0.2" cx="24" cy="25" r="20"/>
 <path style="fill:#0056a9" d="m 42.349848,24.33003 c 0,7.706916 -2.70905,14.065655 -9.096298,17.405122 C 30.486475,43.181872 27.338779,44 24,44 12.954305,44 4,35.045695 4,24 4,22.069909 4.2734017,20.203675 4.7835897,18.437913 7.1931515,10.098412 15.544456,5.6501516 24.660061,5.6501516 c 11.045695,0 17.689787,7.6341834 17.689787,18.6798784 z"/>
 <path style="fill:#ffe339;fill-rule:evenodd" d="M 29.205078,6.2710234 C 28.760119,6.2557006 28.319936,6.2566964 27.888672,6.2729765 23.760013,6.4288456 18.854596,9.1369361 17.18,13.083984 15.289112,17.540842 14,24 24.001953,24 c 2.643353,-4.545367 9.550185,-3.62365 12.464844,0.242188 2.581257,3.423635 2.441053,8.081242 0.511719,11.734374 -1.612249,3.05274 -4.33112,6.086752 -7.970704,7.386719 C 37.631656,41.142963 44,33.313078 44,24 44,18.581448 41.842157,13.655168 38.337891,10.052734 38.168617,9.9063062 37.983182,9.7749857 37.806641,9.6347656 35.294502,7.7091798 32.14007,6.3720938 29.205078,6.2710234 Z"/>
 <path style="opacity:0.2;fill-rule:evenodd" d="m 29.205078,6.7711783 c -0.444959,-0.015323 -0.885142,-0.014327 -1.316406,0.00195 -4.128659,0.1558691 -8.233607,2.3634985 -9.908203,6.3105466 -0.476497,1.123113 -0.661463,2.372564 -0.591797,3.613282 0.05192,-0.903557 0.24334,-1.791963 0.591797,-2.613282 1.674596,-3.947048 5.779544,-6.1546775 9.908203,-6.3105466 3.450115,-0.1302407 7.437114,0.7072853 10.382812,3.2089846 C 36.930899,9.6151523 35.414936,8.4742769 33.785156,7.5621939 32.276033,7.0792581 30.712225,6.8230789 29.205078,6.7711783 Z M 4.578125,21.271178 c -0.1450529,3.261084 0.9835679,6.466963 2.5605469,8.97461 2.1993295,3.497264 6.1640661,5.949195 10.4199221,5.425781 3.948939,-0.485668 7.516641,-4.298454 7.214844,-8.173828 -0.31294,3.5082 -3.607356,6.730154 -7.214844,7.173828 C 13.302738,35.194983 9.3380014,32.743052 7.1386719,29.245788 5.7234984,26.995438 4.6765961,24.181277 4.578125,21.271178 Z"/>
 <path style="opacity:0.2;fill-rule:evenodd" d="M 17.388672 16.697266 C 17.158864 20.696829 19.712549 24.986652 24.001953 25 C 26.645306 20.454633 33.552138 21.376349 36.466797 25.242188 C 37.717599 26.901181 38.323506 28.85019 38.402344 30.833984 C 38.515555 28.512099 37.927386 26.179431 36.466797 24.242188 C 33.552138 20.376349 26.645306 19.454633 24.001953 24 C 20.068622 23.98776 17.595461 20.3801 17.388672 16.697266 z M 43.984375 24.369141 C 43.847486 31.8598 39.599254 38.342722 33.390625 41.650391 C 32.130297 42.80389 30.669841 43.769647 29.007812 44.363281 C 37.631656 42.142966 44 34.313078 44 25 C 44 24.788422 43.990907 24.579168 43.984375 24.369141 z"/>
 <path style="fill:#ff6147;fill-rule:evenodd" d="M 23.582031 4.0039062 C 20.319764 4.0696306 17.028693 4.935437 14.003906 6.6816406 C 9.3108765 9.39091 6.1238073 13.722869 4.7558594 18.558594 C 4.7176961 18.757435 4.6975808 18.965431 4.6660156 19.167969 C 4.1701177 22.801764 5.383874 26.455687 7.1386719 29.246094 C 9.3380014 32.743358 13.302738 35.195289 17.558594 34.671875 C 22.36414 34.080855 26.61704 28.561686 24.001953 24 C 18.743514 23.983637 16.089581 17.540842 17.980469 13.083984 C 19.655065 9.1369357 23.760013 6.9293066 27.888672 6.7734375 C 31.338787 6.6431968 35.325786 7.4807228 38.271484 9.9824219 C 34.374641 6.0089028 29.019143 3.8943657 23.582031 4.0039062 z"/>
 <path style="opacity:0.2;fill:#f4f4f7;fill-rule:evenodd" d="M 23.582031,4.0039062 C 20.319764,4.0696306 17.028693,4.935437 14.003906,6.6816406 9.3108769,9.39091 6.1238073,13.722869 4.7558594,18.558594 c -0.038163,0.198841 -0.058279,0.406837 -0.089844,0.609375 -0.095976,0.703286 -0.1115225,1.405127 -0.087891,2.103515 0.016356,-0.367717 0.03764,-0.735292 0.087891,-1.103515 0.031565,-0.202538 0.051681,-0.410534 0.089844,-0.609375 1.3679479,-4.835725 4.5550175,-9.167684 9.2480466,-11.8769534 3.024787,-1.7462036 6.315858,-2.61201 9.578125,-2.6777344 3.568105,-0.071886 7.098407,0.8199568 10.207031,2.5605469 1.428161,0.4575481 2.796613,1.1344271 4.017579,2.0703125 0.153832,0.1179141 0.316117,0.2213473 0.464843,0.3476563 C 34.374641,6.0089028 29.019143,3.8943659 23.582031,4.0039062 Z m 14.22461,5.6308594 C 36.586548,8.69955 35.21346,8.026365 33.789062,7.5644531 c 1.628328,0.9117377 3.142883,2.0520715 4.482422,3.4179689 -0.148726,-0.126309 -0.311011,-0.229742 -0.464843,-0.347656 0.176541,0.14022 0.361976,0.271541 0.53125,0.417968 3.367434,3.46177 5.485738,8.147594 5.646484,13.316407 C 43.986634,24.245376 44,24.124303 44,24 44,18.581448 41.842157,13.655168 38.337891,10.052734 38.168617,9.906307 37.983182,9.7749857 37.806641,9.6347656 Z M 30.423828,6.8574219 c 0.173519,0.018032 0.34745,0.044938 0.521484,0.068359 -0.174152,-0.023058 -0.3479,-0.050601 -0.521484,-0.068359 z m 1.203125,0.171875 c 0.233189,0.041064 0.466616,0.089283 0.699219,0.140625 -0.233343,-0.050731 -0.465345,-0.1001155 -0.699219,-0.140625 z m 1.126953,0.2402343 c 0.291143,0.072615 0.581167,0.1485357 0.869141,0.2382813 -0.288461,-0.088756 -0.577542,-0.1666054 -0.869141,-0.2382813 z m -2.330078,0.5878907 c 0.173584,0.017758 0.347333,0.045301 0.521484,0.068359 -0.174034,-0.023422 -0.347965,-0.050328 -0.521484,-0.068359 z m 1.203125,0.171875 c 0.233874,0.04051 0.465876,0.089894 0.699219,0.140625 -0.232603,-0.051342 -0.46603,-0.099561 -0.699219,-0.140625 z m 1.126953,0.2402343 c 0.291599,0.071676 0.58068,0.1495255 0.869141,0.2382813 -0.287974,-0.089746 -0.577998,-0.1656661 -0.869141,-0.2382813 z m 1.007813,0.2851563 c 1.075688,0.3466044 2.121539,0.8128037 3.095703,1.421875 -0.972965,-0.6097776 -2.017633,-1.0788142 -3.095703,-1.421875 z m 4.640625,22.2792965 c -0.08686,1.781517 -0.586196,3.556549 -1.423828,5.142578 -1.612249,3.052741 -4.33112,6.086752 -7.970704,7.386719 1.540632,-0.396655 3.005693,-0.977796 4.378907,-1.708984 1.501486,-1.373216 2.714995,-3.01754 3.591797,-4.677735 0.994435,-1.88293 1.507686,-4.032451 1.423828,-6.142578 z"/>
</svg>

<svg xmlns="http://www.w3.org/2000/svg" width="48" height="48"><circle style="opacity:.2" cx="24" cy="25" r="20"/><path style="fill:#0056a9" d="M42.35 24.33c0 7.707-2.71 14.066-9.096 17.405A19.913 19.913 0 0 1 24 44C12.954 44 4 35.046 4 24c0-1.93.273-3.796.784-5.562C7.194 10.098 15.544 5.65 24.66 5.65c11.046 0 17.69 7.634 17.69 18.68z"/><path style="fill:#ffe339;fill-rule:evenodd" d="M29.205 6.271a18.271 18.271 0 0 0-1.316.002c-4.129.156-9.034 2.864-10.709 6.811C15.29 17.541 14 24 24.002 24c2.643-4.545 9.55-3.624 12.465.242 2.581 3.424 2.44 8.081.512 11.735-1.613 3.052-4.332 6.086-7.971 7.386C37.632 41.143 44 33.313 44 24a19.95 19.95 0 0 0-5.662-13.947c-.17-.147-.355-.278-.531-.418-2.512-1.926-5.667-3.263-8.602-3.364z"/><path style="opacity:.2;fill-rule:evenodd" d="M29.205 6.771a18.273 18.273 0 0 0-1.316.002c-4.129.156-8.234 2.364-9.909 6.31-.476 1.124-.661 2.373-.591 3.614a7.843 7.843 0 0 1 .591-2.613c1.675-3.947 5.78-6.155 9.909-6.31 3.45-.131 7.437.706 10.382 3.208a19.85 19.85 0 0 0-4.486-3.42 17.044 17.044 0 0 0-4.58-.79zm-24.627 14.5c-.145 3.261.984 6.467 2.56 8.975 2.2 3.497 6.165 5.949 10.42 5.426 3.95-.486 7.517-4.299 7.215-8.174-.313 3.508-3.607 6.73-7.214 7.174-4.256.523-8.221-1.929-10.42-5.426-1.416-2.25-2.462-5.065-2.56-7.975zM17.389 16.697c-.23 4 2.324 8.29 6.613 8.303 2.643-4.545 9.55-3.624 12.465.242 1.25 1.66 1.857 3.608 1.935 5.592.114-2.322-.475-4.655-1.935-6.592-2.915-3.866-9.822-4.787-12.465-.242-3.933-.012-6.407-3.62-6.613-7.303zm26.595 7.672c-.137 7.49-4.385 13.974-10.593 17.281-1.26 1.154-2.721 2.12-4.383 2.713C37.632 42.143 44 34.313 44 25c0-.212-.01-.42-.016-.63z"/><path style="fill:#ff6147;fill-rule:evenodd" d="M23.582 4.004a19.908 19.908 0 0 0-9.578 2.678 19.95 19.95 0 0 0-9.248 11.877c-.038.198-.058.406-.09.609-.496 3.634.718 7.288 2.473 10.078 2.199 3.497 6.164 5.95 10.42 5.426 4.805-.591 9.058-6.11 6.443-10.672-5.258-.016-7.912-6.46-6.022-10.916 1.675-3.947 5.78-6.155 9.909-6.31 3.45-.13 7.437.707 10.382 3.208-3.896-3.973-9.252-6.088-14.689-5.978z"/><path style="opacity:.2;fill:#f4f4f7;fill-rule:evenodd" d="M23.582 4.004a19.908 19.908 0 0 0-9.578 2.678 19.95 19.95 0 0 0-9.248 11.877c-.038.198-.058.406-.09.609a12.407 12.407 0 0 0-.088 2.103c.016-.367.038-.735.088-1.103.032-.203.052-.41.09-.61a19.95 19.95 0 0 1 9.248-11.876 19.908 19.908 0 0 1 9.578-2.678c3.568-.072 7.098.82 10.207 2.56 1.428.458 2.797 1.135 4.018 2.07.153.119.316.222.464.348-3.896-3.973-9.252-6.088-14.689-5.978zm14.225 5.63c-1.22-.934-2.594-1.608-4.018-2.07a19.85 19.85 0 0 1 4.482 3.418c-.148-.126-.31-.23-.464-.347.176.14.362.271.53.418a19.945 19.945 0 0 1 5.647 13.316c.003-.124.016-.245.016-.369a19.95 19.95 0 0 0-5.662-13.947c-.17-.147-.355-.278-.531-.418zm-7.383-2.777c.173.018.347.045.521.069-.174-.023-.348-.05-.521-.069zm1.203.172zm1.127.24zm-2.33.588c.173.018.347.046.521.069-.174-.024-.348-.05-.521-.069zm1.203.172zm1.127.24zm1.008.286a13.568 13.568 0 0 0 0 0zm4.64 22.279a12.38 12.38 0 0 1-1.423 5.143c-1.613 3.052-4.332 6.086-7.971 7.386a19.841 19.841 0 0 0 4.379-1.709 17.417 17.417 0 0 0 3.592-4.677c.994-1.883 1.507-4.033 1.423-6.143z"/></svg>
